X: 1
T:Johnny Cope
M:C|
L:1/8
Q:80
C:trad.
S:March 2/4
K:HP
|: {gef}e|
{g}A2{GdGe}A{g}B/4d3/4|
{gef}e{g}A{gBd}B{e}A3/4{d}B/4|  !
{g}G2{gGd}G{g}A3/4B/4|
{Gdc}d{e}G{gBd}B{g}A/4{d}G3/4| |
{g}A2{GdGe}A{g}B/4d3/4|  !
{gef}e{gf}g{aBd}B{g}A/4{d}G3/4|
{gAd}A{g}B/4d3/4{gef}ed/4{e}B3/4|
{gBd}B{e}A{GAG}A:| |:  !
{gef}e|
{g}A2{GdGe}A{g}B/4d3/4|
{gef}e3/4d/4{gcd}c3/4{g}B/4{g}A2|  !
{gBd}B{e}A3/4{d}B/4{g}G3/4A/4{g}B3/4c/4|
{gde}d3/4c/4{gBd}B3/4A/4{g}G{gef}e3/4d/4| |
{gcd}c{e}B3/4{d}c/4{Gdc}d{g}c3/4d/4|  !
{gef}e{gf}g{aBd}B{g}A/4{d}G3/4|
{gAd}A{g}B/4d3/4{gef}ed/4{e}B3/4|
{gBd}B{e}A{GAG}A:| |:  !
{gef}e|
{gAGAG}A{ag}a{g}a2|
{f}g3/4e/4{g}d3/4e/4{gf}g2|  !
{aGd}G{gf}g{a}ga|
{f}g3/4e/4{g}d3/4e/4{gf}gd| |
{g}e3/4f/4g3/4e/4{ag}a2|  !
{f}g3/4e/4{g}d3/4e/4{gf}ga|
{f}g{a}e/4a3/4{ef}ed/4{e}B3/4|
{gBd}B{e}A{GAG}A:| |:  !
{g}B/4d3/4|
{g}e2{gef}e3/2{GdG}e/2|
{gfg}f{g}e{A}ed/4{e}B3/4|  !
{g}A3/2B/2{Gdc}d3/2e/2|
{g}f/4a3/4e3/4f/4{Gdc}d{e}A| |
{gBd}B{g}e{gef}e3/2{GdG}e/2|  !
{gfg}f{g}e{A}ed/4{e}B3/4|
{gf}g{a}e/4a3/4{ef}ed/4{e}B3/4|
{gBd}B{e}A{GAG}A:|  !
